src/main/resources/icons/RubyIcons/icons/rake/rakeTaskDefNode@2x.svg

<svg xmlns="http://www.w3.org/2000/svg" width="16" height="16" viewBox="0 0 16 16">
  <g fill="none" fill-rule="evenodd">
    <path fill="#F98B9E" fill-opacity=".6" d="M7,14.9291115 C3.607701,14.4438834 1,11.5264786 1,8 C1,4.134 4.134,1 8,1 C11.5401068,1 14.4664232,3.62789512 14.934628,7.03936416 C14.7936276,7.01357718 14.6484417,7 14.5,7 L12.5,7 C11.121,7 10,8.121 10,9.5 C10,10.093 10.229,10.601 10.566,11 L9,11 C7.897,11 7,11.898 7,13 L7,14.9291115 Z"/>
    <path fill="#40B6E0" d="M12.5,10 C12.229,10 12,9.771 12,9.5 C12,9.229 12.229,9 12.5,9 L14.5,9 C14.771,9 15,9.229 15,9.5 C15,9.771 14.771,10 14.5,10 L12.5,10 Z M14.5,11 C15.325,11 16,10.325 16,9.5 C16,8.675 15.325,8 14.5,8 L12.5,8 C11.675,8 11,8.675 11,9.5 C11,10.169 11.577,10.732 12.186,10.924 L11.063,12 L9,12 C8.45,12 8,12.45 8,13 L8,14 L8,16 L9,16 L9,14 L10,14 L10,16 L11,16 L11,14 L12,14 L12,16 L13,16 L13,14 L14,14 L14,16 L15,16 L15,14 L15,13 C15,12.45 14.55,12 14,12 L12.188,12 L13.281,11 L14.5,11 Z"/>
    <path fill="#231F20" fill-opacity=".7" d="M10.8950689,7.58425638 C10.7500063,7.29929268 10.4324029,6.9997 9.781628,6.9997 C8.7591191,6.9997 8.5,7.6857 8.5,7.9997 L8.5,11 L7.5,11 L7.5,7.9997 C7.499,7.5367 7.15,6.9997 6.2,6.9997 C5.25,6.9997 5.05,7.7654 5,7.9997 C4.96666667,8.1559 4.96666667,9.156 5,11 L4,11 L4,6 L5,6 L5,6.398931 C5.46527507,6.132977 5.93194173,6 6.4,6 C7.13333333,6 7.69953333,6.20129567 8.0986,6.60388701 C8.49762904,6.20129567 9.0919717,6 9.881628,6 C10.9328729,6 11.5089104,6.52871737 11.7835581,7.10449399 C11.4537591,7.20323543 11.1524097,7.36834256 10.8950689,7.58425638 Z"/>
  </g>
</svg>

<svg xmlns="http://www.w3.org/2000/svg" width="16" height="16" viewBox="0 0 16 16"><rect id="frame" width="16" height="16" fill="none"/><g fill="none" fill-rule="evenodd"><path fill="#F98B9E" fill-opacity=".6" d="M7 14.93A7.002 7.002 0 0 1 8 1a7.001 7.001 0 0 1 6.935 6.04A2.414 2.414 0 0 0 14.5 7h-2A2.502 2.502 0 0 0 10 9.5c0 .593.229 1.101.566 1.5H9c-1.103 0-2 .898-2 2v1.93z"/><path fill="#40B6E0" d="M12.5 10a.507.507 0 0 1-.5-.5c0-.271.229-.5.5-.5h2c.271 0 .5.229.5.5s-.229.5-.5.5h-2zm2 1c.825 0 1.5-.675 1.5-1.5S15.325 8 14.5 8h-2c-.825 0-1.5.675-1.5 1.5 0 .669.577 1.232 1.186 1.424L11.063 12H9c-.55 0-1 .45-1 1v3h1v-2h1v2h1v-2h1v2h1v-2h1v2h1v-3c0-.55-.45-1-1-1h-1.812l1.093-1H14.5z"/><path fill="#231F20" fill-opacity=".7" d="M10.895 7.584C10.75 7.3 10.432 7 9.782 7 8.759 7 8.5 7.686 8.5 8v3h-1V8c-.001-.463-.35-1-1.3-1-.95 0-1.15.765-1.2 1-.033.156-.033 1.156 0 3H4V6h1v.399C5.465 6.133 5.932 6 6.4 6c.733 0 1.3.201 1.699.604C8.498 6.2 9.092 6 9.882 6c1.05 0 1.627.529 1.902 1.104-.33.1-.632.264-.889.48z"/></g></svg>
